X:1
T:Title
%%score { ( 1 3 ) | 2 }
L:1/8
M:4/4
K:Ab
V:1 treble nm="Grand Piano"
V:3 treble 
V:2 bass 
V:1
 z4 z2[Q:1/4=96] [CA]>[DB] | [Ec]>[Ec] [Ec]>[Ec] [Fd]>[Ec] [EB]>[EA] | %2
 [FA]>[FA] [EG]>[DF] [CE]2 [A,C]>[B,D] | [CE]>[CE] [CE]>[CE] [CE]>[CE] G>A |[M:3/4] B6[K:bass] | %5
[M:1/4][K:treble] [EA]>[EB] |[M:4/4] [Ec]>[Ec] [Ec]>[Ec] [Fd]>[Ec] [EB]>[EA] | %7
 [FA]>[FA] [EG]>[DF] [CE]2 [A,C]>[B,D] | [CE]>[CE] [CE]>E (3EEE F>G |[M:3/4] [CA]6 |[M:1/4] c>d | %11
[M:4/4] e6 z2 |[M:3/4] A4 z2 |[M:1/4] G>A |[M:4/4] B>B B>B B2 [EGc]>[DGB] | %15
[M:9/8] [CA]2 [EAc]- [EAc] [Ece]2- [Ece][CA]>[DB] | %16
[M:4/4] [Ec]>[Ec] [Ec]>[Ec] [Fd]>[Ec] [EB]>[EA] | [FA]>[FA] [EG]>[DF] [CE]2 [A,C]>[B,D] | %18
 [CE]>[CE] [CE]>E (3EEE F>G |[M:7/4] [CA]6 z2 z2 z4 |] %20
V:2
 z4 z2 [A,,A,]>[A,,A,] | [A,,A,]>[A,,A,] [A,,A,]>[A,,A,] [A,,A,]>[A,,A,] [B,,G,]>[C,A,] | %2
 [D,A,]>[D,A,] [D,A,]>[D,A,] [A,,A,]2 [A,,E,]>[A,,E,] | %3
 [A,,A,]>[A,,A,] [A,,A,]>[A,,A,] [A,,A,]>[A,,A,] [E,B,E]>[E,F,E] |[M:3/4] [E,G,E]6 | %5
[M:1/4] [C,A,]>[B,,G,] |[M:4/4] [A,,A,]>[A,,A,] [A,,A,]>[A,,A,] [A,,A,]>[A,,A,] [B,,G,]>[C,A,] | %7
 [D,A,]>[D,A,] [D,A,]>[D,A,] [A,,A,]2 [A,,E,]>[A,,E,] | %8
 [A,,A,]>[A,,A,] [A,,A,]>[C,A,C] (3[E,G,D][E,G,D][E,G,D] [E,A,D]>[E,B,D] |[M:3/4] [A,,A,]6 | %10
[M:1/4][K:treble] [A,A]>[A,B,A] |[M:4/4] [A,CA]2 [A,C]>[A,C][K:bass] [A,C]>[A,,A,] [E,G,]>[E,G,] | %12
[M:3/4] [A,,A,]>[A,,E,] [A,,E,]>[A,,E,] [A,,A,]2 |[M:1/4] [E,B,E]>[E,CE] | %14
[M:4/4] [E,DE]>[E,DE] [E,DE]>[E,DE] [E,DE]2 E,>E, |[M:9/8] A,,2 A,- A, A,2- A,[A,,A,]>[A,,A,] | %16
[M:4/4] [A,,A,]>[A,,A,] [A,,A,]>[A,,A,] [A,,A,]>[A,,A,] [B,,G,]>[C,A,] | %17
 [D,A,]>[D,A,] [D,A,]>[D,A,] [A,,A,]2 [A,,E,]>[A,,E,] | %18
 [A,,A,]>[A,,A,] [A,,A,]>[C,A,C] (3[E,G,D][E,G,D][E,G,D] [E,A,D]>[E,B,D] | %19
[M:7/4] [A,,A,]6 z2 z2 z4 |] %20
V:3
 x8 | x8 | x8 | x8 |[M:3/4] z2 z2 z z/[K:bass] D,/ |[M:1/4][K:treble] x2 |[M:4/4] x8 | x8 | x8 | %9
[M:3/4] x6 |[M:1/4] x2 |[M:4/4] z2 A>A A>[Ec] [Ed]>[DB] |[M:3/4] C>C C>C [CE]2 |[M:1/4] x2 | %14
[M:4/4] x8 |[M:9/8] x9 |[M:4/4] x8 | x8 | x8 |[M:7/4] x14 |] %20

